!! 00000] TT[00
!! NN
!!!OTL: Cheshui Haozi
!!!ARE: Asia, Ostasien, China, Zhejiang
!! Ethnic Group: Han
!! Haozi - Artikel, Essen 1991
!!!SCT: C0000
!!!YEM: Copyright 1995, estate of Helmut Schaffrath.
**kern
*ICvox
*Ivox
!! Mixed meters:  2/4; 3/4
*M2/4
*k[f#]
*G:
{8dd
4.dd
=1
8dd
16b
16a
4g
=2
8b
8dd
8b
8dd
=3
4g
4a
=4
2g}
=5
{4.g
8a
=6
8b
8dd
8b
8dd
=7
8dd
8b
8a
16g
16e}
=8
*M3/4
{4.g
8a
8b
8dd
=9
*M2/4
4g
4a
=10
2g}
=11
{4.g
8a
=12
8b
8dd
8b
8dd
=13
8dd
8b
8a
16g
16e}
=14
*M3/4
{4.g
8a
8b
8dd
=15
*M2/4
4g
4a
=16
2g}
=17
{4.g
8a
=18
*M3/4
8b
8dd
8b
8dd
8b
8dd
=19
*M2/4
8dd
8b
8a
16g
16e}
=20
*M3/4
{4.g
8a
8b
8dd
=21
*M2/4
4g
4a
=22
2g}
=23
{4.g
8a
=24
8b
8dd
8b
8dd
=25
8dd
8b
8a
16g
16e}
=26
*M3/4
{4.g
8a
8b
8dd
=27
*M2/4
4b
4a
=28
2g}
=29
{4.g
8a
=30
*M3/4
8.b
16dd
8b
8dd
8b
16ee
16ee
=31
*M2/4
8dd
8b
8a
16g
16e}
=32
{4.g
8a
=33
8b
8dd
8b
8dd
=34
4g
4a
=35
2g}
=36
{4.g
8a
=37
8b
8dd
8b
8dd
=38
8b
8dd
8b
8dd
=39
8b
8dd
8b
8ee
=40
8dd
8b
8a
16g
16e}
=41
{4.g
8a
=42
8b
8dd
8b
8dd
=43
4g
4a
=44
2g}
=45
*M3/4
{8b
8a
4b
8g
8a
=46
8b
8a
4g
8g
8a
=47
8b
8a
8b
8a
4g}
=48
{8b
8a
4b
4g
=49
8g
8a
8b
8a
4g
=50
*M2/4
8g
8a
8b
8a
=51
8b
8a
4g}
=52
*M3/4
{8b
8a
4b
4g
=53
8b
8a
4b
4g
=54
8g
8a
8b
8a
8b
8a
=55
2.g}
==
!!!AGN: Haozi zum Wassersch”pfen
!! Die Vorlage enth„lt 9 Phrasen. Die letzten beiden werden wiederholt.
!!    Bis auf die letzten drei Phrasen wurde die Einteilung hier nach
!!    musikalischen Kriterien ver„ndert. Die Struktur tritt so deutlicher
!!    und unabh„ngig von den Taktwechseln hervor. Auáerdem l„át sich so
!!    eine sp„tere automatische Textverteilung leichter bewerkstelligen.
!!!ONB: ESAC (Essen Associative Code) Database: CHINAx
!!!AMT: irregular
!!!AIN: vox
!!!EED: Helmut Schaffrath
!!!EEV: 1.0
*-
